assets/icons/dark/icon-experience.svg

<svg width="40" height="40" viewBox="0 0 40 40" fill="none" xmlns="http://www.w3.org/2000/svg">
<path opacity="0.05" fill-rule="evenodd" clip-rule="evenodd" d="M37.9894 10.0224H3.41071C2.30614 10.0224 1.41071 10.9178 1.41071 12.0224V18.1402C1.41071 18.7554 1.82919 19.2918 2.42593 19.4414V37.5157H38.9742V19.4414C39.5709 19.2918 39.9894 18.7554 39.9894 18.1402V12.0224C39.9894 10.9178 39.094 10.0224 37.9894 10.0224ZM23.7457 21.2234H17.6544V27.333H23.7457V21.2234Z" fill="#0D86FF"/>
<path fill-rule="evenodd" clip-rule="evenodd" d="M15.4315 3.92442C14.7026 3.92442 14.1117 4.5166 14.1117 5.24709V6.26453C14.1117 6.65788 13.7935 6.97674 13.401 6.97674C13.0085 6.97674 12.6904 6.65788 12.6904 6.26453V5.24709C12.6904 3.72992 13.9176 2.5 15.4315 2.5H24.5685C26.0824 2.5 27.3096 3.72992 27.3096 5.24709V6.77326C27.3096 7.1666 26.9915 7.48546 26.599 7.48546C26.2065 7.48546 25.8883 7.1666 25.8883 6.77326V5.24709C25.8883 4.5166 25.2974 3.92442 24.5685 3.92442H15.4315ZM0 11.3517C0 9.83457 1.22724 8.60465 2.74112 8.60465H37.2589C38.7728 8.60465 40 9.83457 40 11.3517V16.8622C40 18.137 39.1249 19.2443 37.8867 19.5362L23.7563 22.8683V26.1047C23.7563 26.779 23.2109 27.3256 22.5381 27.3256H17.4619C16.7891 27.3256 16.2437 26.779 16.2437 26.1047V22.8683L2.11329 19.5362C0.875087 19.2443 0 18.137 0 16.8622V11.3517ZM16.2437 21.405V21.0174C16.2437 20.3431 16.7891 19.7965 17.4619 19.7965H22.5381C23.2109 19.7965 23.7563 20.3431 23.7563 21.0174V21.405L37.5612 18.1497C38.1573 18.0091 38.5787 17.476 38.5787 16.8622V11.3517C38.5787 10.6213 37.9878 10.0291 37.2589 10.0291H2.74112C2.01221 10.0291 1.42132 10.6213 1.42132 11.3517V16.8622C1.42132 17.476 1.84266 18.0091 2.43883 18.1497L16.2437 21.405ZM17.665 21.2209V25.9012H22.335V21.2209H17.665ZM1.72589 21.8314C2.11837 21.8314 2.43655 22.1503 2.43655 22.5436V34.7529C2.43655 35.4834 3.02744 36.0756 3.75635 36.0756H36.2437C36.9726 36.0756 37.5635 35.4834 37.5635 34.7529V22.5436C37.5635 22.1503 37.8816 21.8314 38.2741 21.8314C38.6666 21.8314 38.9848 22.1503 38.9848 22.5436V34.7529C38.9848 36.2701 37.7575 37.5 36.2437 37.5H3.75635C2.24247 37.5 1.01523 36.2701 1.01523 34.7529V22.5436C1.01523 22.1503 1.3334 21.8314 1.72589 21.8314Z" fill="#0D86FF"/>
</svg>

<?xml version="1.0" encoding="utf-8"?>
<!-- Generator: Adobe Illustrator 24.2.3, SVG Export Plug-In . SVG Version: 6.00 Build 0)  -->
<svg version="1.1" id="Capa_1" xmlns="http://www.w3.org/2000/svg" xmlns:xlink="http://www.w3.org/1999/xlink" x="0px" y="0px"
	 viewBox="0 0 40 40" style="enable-background:new 0 0 40 40;" xml:space="preserve">
<style type="text/css">
	.st0{opacity:5.000000e-02;fill-rule:evenodd;clip-rule:evenodd;fill:#1DA1F2;enable-background:new    ;}
	.st1{fill-rule:evenodd;clip-rule:evenodd;fill:#1DA1F2;}
</style>
<path class="st0" d="M38,10H3.4c-1.1,0-2,0.9-2,2v6.1c0,0.6,0.4,1.2,1,1.3v18.1H39V19.4c0.6-0.1,1-0.7,1-1.3V12
	C40,10.9,39.1,10,38,10z M23.7,21.2h-6.1v6.1h6.1V21.2z"/>
<path class="st1" d="M15.4,3.9c-0.7,0-1.3,0.6-1.3,1.3v1c0,0.4-0.3,0.7-0.7,0.7s-0.7-0.3-0.7-0.7v-1c0-1.5,1.2-2.7,2.7-2.7h9.1
	c1.5,0,2.7,1.2,2.7,2.7v1.5c0,0.4-0.3,0.7-0.7,0.7c-0.4,0-0.7-0.3-0.7-0.7V5.2c0-0.7-0.6-1.3-1.3-1.3H15.4z M0,11.4
	c0-1.5,1.2-2.7,2.7-2.7h34.5c1.5,0,2.7,1.2,2.7,2.7v5.5c0,1.3-0.9,2.4-2.1,2.7l-14.1,3.3v3.2c0,0.7-0.5,1.2-1.2,1.2h-5.1
	c-0.7,0-1.2-0.5-1.2-1.2v-3.2L2.1,19.5C0.9,19.2,0,18.1,0,16.9V11.4z M16.2,21.4V21c0-0.7,0.5-1.2,1.2-1.2h5.1
	c0.7,0,1.2,0.5,1.2,1.2v0.4l13.8-3.3c0.6-0.1,1-0.7,1-1.3v-5.5c0-0.7-0.6-1.3-1.3-1.3H2.7c-0.7,0-1.3,0.6-1.3,1.3v5.5
	c0,0.6,0.4,1.1,1,1.3L16.2,21.4z M17.7,21.2v4.7h4.7v-4.7H17.7z M1.7,21.8c0.4,0,0.7,0.3,0.7,0.7v12.2c0,0.7,0.6,1.3,1.3,1.3h32.5
	c0.7,0,1.3-0.6,1.3-1.3V22.5c0-0.4,0.3-0.7,0.7-0.7c0.4,0,0.7,0.3,0.7,0.7v12.2c0,1.5-1.2,2.7-2.7,2.7H3.8c-1.5,0-2.7-1.2-2.7-2.7
	V22.5C1,22.2,1.3,21.8,1.7,21.8z"/>
</svg>
